public/assets/logo.svg

<svg width="169" height="59" viewBox="0 0 169 59" fill="none" xmlns="http://www.w3.org/2000/svg">
<g clip-path="url(#clip0_30_66)">
<path d="M41.6723 25.2469L26.1603 9.65989C26.4512 8.79161 26.6833 7.90482 26.8551 7.0055C27.04 5.90318 27.3914 4.83528 27.8973 3.83832C28.1396 3.45319 28.4615 3.12412 28.8413 2.87308C29.5965 2.3226 29.6494 1.13114 28.8413 0.135736C28.8101 0.0949953 28.7701 0.0616879 28.7244 0.0382156C28.6787 0.0147434 28.6284 0.00169111 28.577 0L27.6103 0C12.5138 0 0.151041 11.7186 0 26.1518V26.8607C0 26.9663 0 27.0794 0 27.1925C0 34.4845 0.883591 42.8474 6.04165 50.9689C6.15977 51.1546 6.31449 51.3144 6.49641 51.4385C6.67832 51.5625 6.88363 51.6483 7.09981 51.6907C7.316 51.733 7.53855 51.731 7.75393 51.6847C7.9693 51.6384 8.17298 51.5488 8.35258 51.4214C8.69354 51.178 8.92869 50.8139 9.01008 50.4033C9.09147 49.9928 9.01298 49.5667 8.7906 49.2119C4.10832 41.7766 3.31535 33.9944 3.30025 27.1849C3.61744 26.3177 6.13983 24.6964 9.13799 24.0555C16.2596 22.5473 21.7801 18.5129 24.7783 12.8949L35.5551 23.7237V45.2454H13.1557C12.9408 45.2454 12.7281 45.2878 12.5297 45.3701C12.3313 45.4524 12.1511 45.5731 11.9995 45.7251C11.848 45.8772 11.728 46.0576 11.6464 46.2561C11.5649 46.4546 11.5234 46.6672 11.5244 46.8818C11.5244 47.3138 11.6963 47.7281 12.0022 48.0335C12.3081 48.339 12.7231 48.5106 13.1557 48.5106H36.5671C36.8553 48.5207 37.1428 48.4738 37.4128 48.3726C37.6829 48.2715 37.9303 48.118 38.1408 47.9211C38.3513 47.7243 38.5208 47.4878 38.6395 47.2253C38.7583 46.9628 38.8239 46.6795 38.8327 46.3916V27.1472C38.8379 27.1378 38.8456 27.13 38.8549 27.1245C38.8642 27.119 38.8748 27.1161 38.8856 27.1161C38.8964 27.1161 38.9069 27.119 38.9162 27.1245C38.9255 27.13 38.9332 27.1378 38.9384 27.1472L39.3689 27.5846C39.6759 27.8895 40.0914 28.0606 40.5244 28.0606C40.9574 28.0606 41.3728 27.8895 41.6798 27.5846C41.836 27.4323 41.96 27.2502 42.0444 27.0491C42.1288 26.8481 42.1719 26.6322 42.1712 26.4142C42.1705 26.1962 42.126 25.9805 42.0403 25.78C41.9546 25.5795 41.8294 25.3983 41.6723 25.2469ZM8.4432 20.8657C6.747 21.2551 5.11287 21.8768 3.58723 22.7132C5.28644 12.6763 13.8354 4.76585 24.4762 3.45373C24.1112 4.40389 23.8356 5.38594 23.6531 6.38714C22.2182 13.7244 16.539 19.1388 8.45831 20.8657H8.4432Z" fill="url(#paint0_linear_30_66)"/>
<path d="M90.3077 39.2126C90.1089 39.0644 89.8684 38.9826 89.6204 38.9789C88.8503 39.1081 88.1255 39.4298 87.5134 39.9139C86.8268 40.3919 86.0592 40.7419 85.2478 40.947C84.4473 40.947 83.828 40.3664 83.3824 39.2051C82.9953 37.9533 82.8192 36.646 82.8613 35.3366C82.947 33.0139 83.3562 30.7145 84.0772 28.5046C84.1519 28.2788 84.205 28.0465 84.2358 27.8108C84.2358 27.5469 84.0092 27.2678 83.5712 26.9888C83.1779 26.7342 82.7184 26.6005 82.2496 26.6042C81.5556 26.726 80.9021 27.016 80.3465 27.4488C79.8527 27.8534 79.3246 28.2142 78.7681 28.5272C78.9613 27.8725 79.0704 27.1959 79.0929 26.5138C79.1015 25.9222 78.9468 25.3398 78.6457 24.8303C78.3446 24.3208 77.9088 23.904 77.3861 23.6256C76.7192 23.229 75.9571 23.0205 75.1809 23.0223C74.5248 22.9782 73.8693 23.1161 73.2868 23.4209C72.7044 23.7257 72.2177 24.1854 71.8806 24.7492C71.5393 25.3134 71.3591 25.9601 71.3595 26.6193C71.2996 27.4884 71.4921 28.3563 71.9141 29.1188C72.3361 29.8813 72.9696 30.5059 73.7384 30.9176L74.1085 31.1062C73.1494 34.6805 71.1707 38.0362 65.4991 41.5277C67.1807 29.4622 68.0215 23.4019 68.0215 23.3466C68.0215 22.0646 67.4702 21.4086 66.4658 21.3935C66.2289 21.3929 65.9947 21.4439 65.7795 21.5429C65.5643 21.6418 65.3733 21.7864 65.2197 21.9666C64.4087 21.5728 63.5159 21.3764 62.6143 21.3935C60.3335 21.3935 58.3851 22.6327 56.769 25.1111C55.4128 27.2186 54.5649 29.6115 54.2919 32.1016C54.2332 32.6501 54.2029 33.2013 54.2013 33.753C54.2013 36.9906 54.9716 39.1749 56.5122 40.3061C57.2538 40.8196 58.14 41.0838 59.0421 41.0602C60.1925 41.0364 61.3087 40.6658 62.2442 39.9969L61.5796 44.4913C58.9968 46.4268 57.1793 47.7816 56.127 48.5558L55.9911 48.7368H55.9458C55.1382 49.2819 54.4198 49.9483 53.8161 50.7125C53.2028 51.6578 52.8968 52.7692 52.9401 53.8948C52.9492 54.5578 53.0924 55.2122 53.3611 55.8186C53.6297 56.425 54.0182 56.9711 54.5033 57.4239C54.9937 57.9295 55.5804 58.332 56.2289 58.6079C56.8773 58.8837 57.5745 59.0273 58.2794 59.0301C59.462 59.0323 60.6139 58.6542 61.5645 57.9518C62.1853 57.4711 62.702 56.8698 63.0836 56.1841C63.4652 55.4985 63.7038 54.7428 63.7848 53.9626L64.8648 46.3463C72.1072 41.2336 75.4679 38.2248 77.4616 31.6717C78.3311 31.6169 79.1821 31.3968 79.9689 31.0232C79.7145 32.2297 79.5654 33.4559 79.5233 34.6881C79.5233 35.2084 79.478 35.7061 79.478 36.1963C79.478 38.6697 79.7751 40.4141 80.3691 41.4297C80.6753 42.2124 81.188 42.8977 81.8528 43.4128C82.5177 43.928 83.3098 44.2538 84.1452 44.3555C84.3415 44.3555 84.5303 44.3555 84.7191 44.3555C86.3043 44.3403 87.8417 43.811 89.0993 42.8473C90.2472 41.9575 90.8439 41.0903 90.8892 40.2382C90.8779 40.0341 90.8195 39.8353 90.7187 39.6574C90.6178 39.4795 90.4771 39.3273 90.3077 39.2126ZM60.4695 52.1C60.258 53.9048 59.7772 54.9731 59.027 55.3049C58.787 55.4011 58.5305 55.4498 58.2718 55.4482C57.9492 55.4621 57.6313 55.367 57.3695 55.1781C57.1078 54.9893 56.9175 54.7178 56.8294 54.4075C56.7363 54.1669 56.6877 53.9114 56.6859 53.6535C56.6859 52.8994 57.2598 52.0925 58.3473 51.2404C58.3473 51.2404 59.1479 50.6069 60.6658 49.4456L60.8924 49.2722L60.4695 52.1ZM63.1353 32.8557C62.9999 33.7039 62.7457 34.5289 62.3801 35.3064C61.8931 35.9165 61.3149 36.4481 60.6658 36.8825C60.2231 37.2466 59.6812 37.4699 59.1101 37.5235C58.2718 37.5235 57.796 36.7241 57.6903 35.1179C57.6903 34.9068 57.6903 34.6956 57.6903 34.4769C57.7025 32.3974 58.1474 30.343 58.9968 28.4442C59.9861 26.182 61.1945 24.9075 62.6067 24.5154C62.8785 24.4487 63.1575 24.4158 63.4374 24.4174C63.8123 24.435 64.1785 24.5355 64.5098 24.7115C64.2237 27.4524 63.7646 30.1725 63.1353 32.8557ZM75.415 28.595C75.0513 28.4839 74.7308 28.2636 74.497 27.964C74.2632 27.6645 74.1275 27.3003 74.1085 26.921C74.0939 26.7231 74.1529 26.5269 74.2741 26.3697C74.3953 26.2125 74.5702 26.1054 74.7655 26.0688C74.8531 26.0391 74.9449 26.0239 75.0374 26.0236C75.2301 25.9948 75.4265 26.0415 75.5856 26.1539C75.7446 26.2663 75.854 26.4358 75.8908 26.6269C75.9194 26.7223 75.9347 26.8213 75.9361 26.921C75.8529 27.5032 75.677 28.0683 75.415 28.595Z" fill="#28C985"/>
<path d="M87.3247 37.3199C87.3263 36.7707 87.3566 36.222 87.4153 35.676C87.6808 33.1946 88.5211 30.8091 89.8698 28.7082C91.4859 26.1945 93.4368 24.9377 95.7226 24.9377C96.3196 24.9345 96.9142 25.0132 97.4898 25.1715C99.5037 25.7496 100.511 27.1748 100.511 29.4472C100.511 29.6206 100.511 29.7941 100.511 29.975C100.439 30.982 100.157 31.9629 99.6836 32.855C99.2103 33.747 98.5556 34.5306 97.7617 35.1556C96.1597 36.5165 94.1176 37.2507 92.0145 37.2218C91.6066 37.2223 91.1995 37.1844 90.7987 37.1087C90.7638 37.4242 90.7487 37.7415 90.7533 38.0589C90.7105 38.7698 90.8702 39.4784 91.214 40.1025C91.6218 40.7208 92.4677 41.0828 93.7515 41.1884C94.3128 41.189 94.8725 41.1284 95.4205 41.0074C96.6395 40.6642 97.793 40.1214 98.834 39.4012C99.6874 38.8431 102.24 37.0032 102.61 37.0032C102.829 37.0128 103.042 37.0777 103.229 37.1917C103.461 37.3074 103.655 37.4865 103.789 37.7081C103.923 37.9298 103.99 38.1848 103.985 38.4435C103.981 38.6446 103.943 38.8437 103.871 39.0317C103.456 40.0271 100.269 42.5156 98.2072 43.3978C96.6225 44.1413 94.9045 44.5593 93.1549 44.627C92.6483 44.6282 92.1427 44.5828 91.6445 44.4913C88.7697 43.9332 87.3297 41.5428 87.3247 37.3199ZM94.7031 28.5272C93.3135 29.4623 92.2235 31.2469 91.433 33.8812C91.7905 33.9751 92.1585 34.0232 92.5281 34.0245C93.7391 34.0444 94.9165 33.6266 95.8434 32.8481C96.3274 32.4926 96.722 32.0296 96.9959 31.4956C97.2699 30.9616 97.4157 30.3714 97.4218 29.7714C97.4218 28.5875 97.0518 27.9842 96.3041 27.9692C95.728 27.9987 95.1724 28.1924 94.7031 28.5272Z" fill="#28C985"/>
<path d="M102.315 37.3199C102.342 34.264 103.235 31.2782 104.891 28.7082C106.517 26.1945 108.468 24.9377 110.744 24.9377C111.341 24.9345 111.935 25.0132 112.511 25.1715C114.525 25.7496 115.532 27.1748 115.532 29.4472C115.532 29.6206 115.532 29.7941 115.532 29.975C115.463 30.9828 115.183 31.9648 114.709 32.8573C114.235 33.7498 113.579 34.5329 112.783 35.1556C111.181 36.5177 109.139 37.2521 107.035 37.2218C106.628 37.222 106.22 37.1841 105.82 37.1087C105.785 37.4242 105.77 37.7415 105.774 38.0589C105.737 38.7694 105.896 39.4765 106.235 40.1025C106.643 40.7208 107.496 41.0828 108.78 41.1884C109.341 41.1882 109.901 41.1275 110.449 41.0074C111.665 40.6625 112.816 40.1198 113.855 39.4012C114.716 38.8431 117.269 37.0032 117.631 37.0032C117.85 37.0118 118.064 37.0767 118.25 37.1917C118.482 37.3074 118.676 37.4865 118.81 37.7081C118.944 37.9298 119.011 38.1848 119.005 38.4435C119.002 38.6446 118.964 38.8437 118.892 39.0317C118.484 40.0271 115.297 42.5156 113.228 43.3978C111.644 44.142 109.926 44.5601 108.176 44.627C107.669 44.6287 107.164 44.5833 106.665 44.4913C103.77 43.9332 102.32 41.5428 102.315 37.3199ZM109.694 28.5272C108.312 29.4623 107.217 31.2494 106.424 33.8812C106.784 33.9751 107.154 34.0232 107.526 34.0245C108.737 34.043 109.914 33.6254 110.842 32.8481C111.324 32.4914 111.718 32.0281 111.992 31.4944C112.266 30.9607 112.412 30.371 112.42 29.7714C112.42 28.5875 112.042 27.9842 111.295 27.9692C110.719 28.0012 110.164 28.1946 109.694 28.5272Z" fill="#28C985"/>
<path d="M116.551 41.9802L118.5 27.2377C118.5 26.9813 118.568 26.7325 118.613 26.4836C118.892 25.1715 119.489 24.5079 120.403 24.5079C120.573 24.5065 120.743 24.5242 120.909 24.5607C121.619 24.7266 121.966 25.3902 121.966 26.5515C121.966 26.7174 121.966 27.0115 121.921 27.4187C121.921 27.6977 121.921 27.9088 121.921 28.0672C121.951 28.0003 121.989 27.937 122.034 27.8787C122.471 26.9704 123.159 26.2059 124.016 25.6754C124.874 25.1449 125.866 24.8706 126.875 24.8849C127.615 24.8816 128.338 25.1141 128.937 25.5485C129.378 25.8517 129.738 26.2601 129.981 26.7368C130.225 27.2134 130.346 27.7432 130.334 28.2783C130.334 28.4593 130.334 28.8967 130.334 29.5829C130.334 31.1439 130.334 32.3806 130.334 33.3081C130.334 36.4376 130.432 38.2776 130.613 38.8356C130.659 38.9563 130.704 39.0845 130.749 39.2277C131.18 40.389 131.784 40.9772 132.562 40.9772C132.716 40.9757 132.87 40.9605 133.022 40.932C133.745 40.6934 134.414 40.317 134.993 39.8235C135.567 39.3319 136.269 39.0152 137.017 38.911C137.219 38.9117 137.418 38.9664 137.591 39.0694C137.825 39.2067 138.015 39.4067 138.141 39.6467C138.266 39.8866 138.322 40.1568 138.301 40.4267C138.211 41.1808 137.546 41.9952 136.375 42.9001C135.135 43.7915 133.652 44.2858 132.124 44.3178C131.052 44.3704 129.996 44.0448 129.141 43.3978C127.509 42.0857 126.691 39.2051 126.686 34.756C126.686 34.4317 126.686 33.9189 126.686 33.195C126.686 32.4711 126.731 31.8226 126.731 31.3173C126.731 29.6809 126.55 28.8439 126.18 28.7987C126.103 28.8021 126.026 28.8173 125.954 28.8439C125.083 29.1606 123.965 30.9001 122.6 34.0622C121.6 36.2851 120.841 38.6083 120.335 40.9923L120.29 41.6484C120.255 42.18 120.098 42.6963 119.829 43.1565C119.679 43.47 119.447 43.7368 119.157 43.9281C118.867 44.1195 118.53 44.2281 118.183 44.2424C117.993 44.242 117.806 44.2036 117.631 44.1293C116.906 43.7749 116.551 43.066 116.551 41.9802Z" fill="#28C985"/>
<path d="M134.155 36.9503C134.156 36.3977 134.196 35.8458 134.276 35.2989C134.531 32.8234 135.359 30.4409 136.692 28.3386C138.283 25.8652 140.194 24.6285 142.424 24.6285C143.419 24.6201 144.398 24.8806 145.256 25.3826C145.934 25.7448 146.495 26.2911 146.874 26.9583C147.254 27.6256 147.436 28.3865 147.401 29.153C147.401 29.3415 147.401 29.5301 147.401 29.7261C147.339 30.9335 146.962 32.1038 146.308 33.1209C145.654 34.1381 144.744 34.9669 143.67 35.5251C142.2 36.4049 140.521 36.8738 138.807 36.8824C138.393 36.8844 137.981 36.8439 137.576 36.7618C137.531 37.0639 137.508 37.3688 137.508 37.6742C137.501 38.1884 137.588 38.6995 137.765 39.1824C137.97 39.7175 138.346 40.1704 138.835 40.4715C139.323 40.7726 139.897 40.9052 140.468 40.849C142.507 40.7755 144.468 40.0513 146.064 38.7827C148.58 36.8161 150.665 34.3547 152.189 31.551L151.827 31.37C151.052 30.9581 150.412 30.3325 149.984 29.5677C149.555 28.803 149.356 27.9313 149.41 27.0566C149.412 26.3968 149.595 25.7501 149.939 25.1865C150.274 24.6233 150.76 24.1639 151.341 23.8591C151.922 23.5543 152.576 23.4161 153.231 23.4596C154.01 23.4541 154.776 23.6628 155.444 24.0629C155.967 24.3413 156.403 24.7581 156.704 25.2676C157.005 25.7771 157.159 26.3596 157.151 26.9511C157.125 27.6329 157.016 28.309 156.826 28.9645C157.385 28.6567 157.915 28.3009 158.412 27.9012C158.966 27.47 159.616 27.1802 160.308 27.0566C160.776 27.0493 161.236 27.1805 161.629 27.4337C162.075 27.7202 162.301 27.9917 162.301 28.2632C162.266 28.4987 162.21 28.7308 162.135 28.957C161.418 31.1678 161.009 33.4667 160.919 35.789C160.876 37.099 161.055 38.4069 161.448 39.6575C161.894 40.8112 162.513 41.3919 163.306 41.3919C164.118 41.1921 164.886 40.8444 165.571 40.3663C166.187 39.8827 166.914 39.5612 167.686 39.4313C167.934 39.436 168.174 39.5177 168.373 39.665C168.55 39.7801 168.697 39.9362 168.801 40.12C168.905 40.3038 168.963 40.5098 168.97 40.7208C168.924 41.5729 168.328 42.4401 167.18 43.3299C165.92 44.2951 164.38 44.8245 162.792 44.8381H162.218C161.383 44.7355 160.591 44.4095 159.927 43.8944C159.262 43.3794 158.749 42.6945 158.442 41.9122C157.853 40.8942 157.551 39.1447 157.551 36.6788C157.551 36.2038 157.551 35.7136 157.604 35.1707C157.641 33.9331 157.79 32.7014 158.05 31.4907C157.263 31.8653 156.412 32.083 155.542 32.1317C154.246 34.9074 152.455 37.4243 150.256 39.5595C147.008 42.7266 143.585 44.3102 139.985 44.3102H139.615C135.98 44.1443 134.16 41.691 134.155 36.9503ZM141.526 28.3009L141.412 28.3763C140.043 29.3114 138.973 31.0232 138.203 33.5117C138.562 33.5749 138.926 33.6052 139.29 33.6021C140.531 33.633 141.745 33.2421 142.734 32.4936C143.209 32.1647 143.599 31.728 143.872 31.2194C144.145 30.7107 144.293 30.1447 144.305 29.5678C144.304 29.4084 144.289 29.2494 144.259 29.0927C144.129 28.2481 143.758 27.8107 143.149 27.7806C142.577 27.8551 142.025 28.0422 141.526 28.3311V28.3009ZM152.197 27.3206C152.215 27.7009 152.351 28.0662 152.584 28.3671C152.818 28.6679 153.139 28.8897 153.503 29.0022C153.773 28.4752 153.951 27.9067 154.032 27.3206C154.03 27.2234 154.015 27.1269 153.986 27.034C153.95 26.8444 153.841 26.6762 153.684 26.564C153.527 26.4517 153.332 26.404 153.141 26.4307C153.046 26.4316 152.952 26.4469 152.861 26.476C152.66 26.5112 152.48 26.6209 152.357 26.7831C152.234 26.9453 152.176 27.1481 152.197 27.3507V27.3206Z" fill="#28C985"/>
</g>
<defs>
<linearGradient id="paint0_linear_30_66" x1="0" y1="25.8577" x2="42.148" y2="25.8577" gradientUnits="userSpaceOnUse">
<stop stop-color="#28C985"/>
<stop offset="1" stop-color="#18808A"/>
</linearGradient>
<clipPath id="clip0_30_66">
<rect width="169" height="59" fill="white"/>
</clipPath>
</defs>
</svg>

<svg width="169" height="59" fill="none" xmlns="http://www.w3.org/2000/svg"><g clip-path="url(#a)"><path d="M41.672 25.247 26.16 9.66c.291-.868.523-1.755.695-2.655.185-1.102.536-2.17 1.042-3.167a3.2 3.2 0 0 1 .944-.965c.755-.55.808-1.742 0-2.737A.347.347 0 0 0 28.577 0h-.967C12.514 0 .151 11.719 0 26.152v1.04c0 7.292.884 15.655 6.042 23.777a1.623 1.623 0 0 0 2.31.452 1.644 1.644 0 0 0 .439-2.21C4.108 41.778 3.315 33.995 3.3 27.186c.316-.867 2.839-2.489 5.837-3.13 7.122-1.508 12.642-5.542 15.64-11.16l10.777 10.829v21.521h-22.4a1.634 1.634 0 0 0 0 3.266h23.412a2.191 2.191 0 0 0 2.266-2.12V27.148a.06.06 0 0 1 .105 0l.43.438a1.64 1.64 0 0 0 2.312 0 1.628 1.628 0 0 0-.008-2.338zM8.443 20.866a18.897 18.897 0 0 0-4.856 1.847c1.7-10.037 10.248-17.947 20.89-19.26-.366.95-.641 1.933-.824 2.934-1.435 7.337-7.114 12.752-15.195 14.479h-.015z" fill="url(#b)"/><path d="M90.308 39.213a1.18 1.18 0 0 0-.688-.234c-.77.13-1.495.45-2.107.935a6.944 6.944 0 0 1-2.265 1.033c-.8 0-1.42-.58-1.866-1.742a11.81 11.81 0 0 1-.52-3.868 24.998 24.998 0 0 1 1.215-6.832 3.76 3.76 0 0 0 .159-.694c0-.264-.227-.543-.665-.822a2.397 2.397 0 0 0-1.321-.385 4.309 4.309 0 0 0-1.903.845c-.494.404-1.022.765-1.579 1.078a8.052 8.052 0 0 0 .325-2.013 3.217 3.217 0 0 0-1.707-2.888 4.295 4.295 0 0 0-2.205-.604 3.57 3.57 0 0 0-3.3 1.727 3.609 3.609 0 0 0-.522 1.87 4.52 4.52 0 0 0 2.38 4.299l.37.188c-.96 3.575-2.938 6.93-8.61 10.422 1.682-12.066 2.523-18.126 2.523-18.181 0-1.282-.552-1.938-1.556-1.954a1.632 1.632 0 0 0-1.246.574 5.717 5.717 0 0 0-2.606-.573c-2.28 0-4.229 1.239-5.845 3.717a16.175 16.175 0 0 0-2.477 6.99c-.059.55-.09 1.1-.09 1.652 0 3.238.77 5.422 2.31 6.553a4.25 4.25 0 0 0 2.53.754 5.708 5.708 0 0 0 3.202-1.063l-.664 4.494c-2.583 1.936-4.4 3.29-5.453 4.065l-.136.18h-.045a9.455 9.455 0 0 0-2.13 1.977 5.461 5.461 0 0 0-.876 3.182 4.915 4.915 0 0 0 1.563 3.529 5.288 5.288 0 0 0 3.776 1.606 5.51 5.51 0 0 0 3.285-1.078 5.807 5.807 0 0 0 2.22-3.99l1.08-7.616c7.243-5.112 10.604-8.121 12.598-14.674a6.85 6.85 0 0 0 2.507-.649 21.286 21.286 0 0 0-.446 3.665c0 .52-.045 1.018-.045 1.508 0 2.474.297 4.218.891 5.234a4.654 4.654 0 0 0 3.776 2.925h.574a7.317 7.317 0 0 0 4.38-1.508c1.148-.89 1.745-1.757 1.79-2.609a1.327 1.327 0 0 0-.581-1.025zM60.469 52.1c-.211 1.805-.692 2.873-1.442 3.205-.24.096-.496.145-.755.143a1.436 1.436 0 0 1-1.443-1.04 2.13 2.13 0 0 1-.143-.755c0-.754.574-1.56 1.661-2.413 0 0 .8-.633 2.319-1.794l.226-.174-.423 2.828zm2.666-19.244a9.148 9.148 0 0 1-.755 2.45 7.606 7.606 0 0 1-1.714 1.577 2.872 2.872 0 0 1-1.556.64c-.838 0-1.314-.799-1.42-2.405v-.641c.013-2.08.457-4.134 1.307-6.033.99-2.262 2.197-3.537 3.61-3.929.272-.066.55-.1.83-.098a2.54 2.54 0 0 1 1.073.294 65.404 65.404 0 0 1-1.375 8.145zm12.28-4.261a1.85 1.85 0 0 1-1.306-1.674.806.806 0 0 1 .657-.852.855.855 0 0 1 .271-.045.756.756 0 0 1 .854.603c.028.095.044.194.045.294a5.508 5.508 0 0 1-.521 1.674z" fill="#28C985"/><path d="M87.325 37.32a16.06 16.06 0 0 1 2.545-8.612c1.616-2.514 3.567-3.77 5.853-3.77a6.532 6.532 0 0 1 1.767.234c2.014.578 3.021 2.003 3.021 4.275v.528a7.247 7.247 0 0 1-2.75 5.18 8.693 8.693 0 0 1-5.746 2.067c-.408 0-.816-.038-1.216-.113-.035.315-.05.633-.046.95-.043.71.117 1.42.461 2.044.408.618 1.254.98 2.537 1.085.562.001 1.121-.06 1.67-.18a11.457 11.457 0 0 0 3.413-1.607c.853-.558 3.406-2.398 3.776-2.398.219.01.432.075.619.189a1.368 1.368 0 0 1 .756 1.252 1.74 1.74 0 0 1-.114.588c-.415.995-3.602 3.484-5.664 4.366a13.086 13.086 0 0 1-5.052 1.229 8.253 8.253 0 0 1-1.51-.136c-2.875-.558-4.315-2.948-4.32-7.171zm7.378-8.793c-1.39.935-2.48 2.72-3.27 5.354.357.094.725.142 1.095.144a5.027 5.027 0 0 0 3.315-1.177 3.87 3.87 0 0 0 1.579-3.077c0-1.184-.37-1.787-1.118-1.802a3.023 3.023 0 0 0-1.6.558z" fill="#28C985"/><path d="M102.315 37.32c.027-3.056.92-6.042 2.576-8.612 1.626-2.513 3.577-3.77 5.853-3.77a6.533 6.533 0 0 1 1.767.234c2.014.578 3.021 2.003 3.021 4.275v.528a7.191 7.191 0 0 1-2.749 5.18 8.68 8.68 0 0 1-5.748 2.067c-.407 0-.815-.038-1.215-.113-.035.315-.05.633-.046.95-.037.71.122 1.418.461 2.044.408.618 1.261.98 2.545 1.085.561 0 1.121-.06 1.669-.18a11.509 11.509 0 0 0 3.406-1.607c.861-.558 3.414-2.398 3.776-2.398.219.009.433.074.619.189a1.368 1.368 0 0 1 .755 1.252c-.003.2-.041.4-.113.588-.408.995-3.595 3.484-5.664 4.366a13.053 13.053 0 0 1-5.052 1.229 8.176 8.176 0 0 1-1.511-.136c-2.895-.558-4.345-2.948-4.35-7.171zm7.379-8.793c-1.382.935-2.477 2.722-3.27 5.354.36.094.73.142 1.102.144a5.044 5.044 0 0 0 3.316-1.177 3.885 3.885 0 0 0 1.578-3.077c0-1.184-.378-1.787-1.125-1.802a3.066 3.066 0 0 0-1.601.558z" fill="#28C985"/><path d="m116.551 41.98 1.949-14.742c0-.257.068-.505.113-.754.279-1.313.876-1.976 1.79-1.976.17-.002.34.016.506.053.71.166 1.057.83 1.057 1.99 0 .166 0 .46-.045.868v.648a.935.935 0 0 1 .113-.188 5.288 5.288 0 0 1 4.841-2.994c.74-.003 1.463.23 2.062.663a3.217 3.217 0 0 1 1.397 2.73v5.03c0 3.13.098 4.97.279 5.528.046.12.091.248.136.392.431 1.161 1.035 1.75 1.813 1.75.154-.002.308-.017.46-.046a5.877 5.877 0 0 0 1.971-1.108 3.949 3.949 0 0 1 2.024-.913c.202 0 .401.055.574.158a1.45 1.45 0 0 1 .71 1.358c-.09.754-.755 1.568-1.926 2.473a7.555 7.555 0 0 1-4.251 1.418 4.572 4.572 0 0 1-2.983-.92c-1.632-1.312-2.45-4.193-2.455-8.642v-1.561c0-.724.045-1.372.045-1.878 0-1.636-.181-2.473-.551-2.518a.75.75 0 0 0-.226.045c-.871.317-1.989 2.056-3.354 5.218a34.198 34.198 0 0 0-2.265 6.93l-.045.656a3.434 3.434 0 0 1-.461 1.508 1.913 1.913 0 0 1-1.646 1.086c-.19 0-.377-.038-.552-.113-.725-.354-1.08-1.063-1.08-2.149z" fill="#28C985"/><path d="M134.155 36.95c.001-.552.041-1.104.121-1.651a16.075 16.075 0 0 1 2.416-6.96c1.591-2.474 3.502-3.71 5.732-3.71a5.517 5.517 0 0 1 2.832.754 4.06 4.06 0 0 1 2.145 3.77v.573a6.935 6.935 0 0 1-3.731 5.8 9.561 9.561 0 0 1-4.863 1.356 6.046 6.046 0 0 1-1.231-.12 6.193 6.193 0 0 0-.068.912c-.007.514.08 1.026.257 1.508a2.622 2.622 0 0 0 2.703 1.667c2.039-.074 4-.798 5.596-2.066a23.308 23.308 0 0 0 6.125-7.232l-.362-.181a4.568 4.568 0 0 1-2.417-4.313 3.61 3.61 0 0 1 .529-1.87 3.55 3.55 0 0 1 3.292-1.727 4.25 4.25 0 0 1 2.213.603 3.221 3.221 0 0 1 1.707 2.888 8.379 8.379 0 0 1-.325 2.014 10.984 10.984 0 0 0 1.586-1.064 4.323 4.323 0 0 1 1.896-.844c.468-.008.928.123 1.321.377.446.286.672.558.672.83a4.139 4.139 0 0 1-.166.693 25.325 25.325 0 0 0-1.216 6.832c-.043 1.31.136 2.618.529 3.868.446 1.154 1.065 1.735 1.858 1.735.812-.2 1.58-.548 2.265-1.026a4.683 4.683 0 0 1 2.115-.935c.248.005.488.087.687.234a1.316 1.316 0 0 1 .597 1.056c-.046.852-.642 1.72-1.79 2.609a7.318 7.318 0 0 1-4.388 1.508h-.574a4.667 4.667 0 0 1-3.776-2.926c-.589-1.018-.891-2.767-.891-5.233 0-.475 0-.965.053-1.508.037-1.238.186-2.47.446-3.68a6.705 6.705 0 0 1-2.508.64 25.232 25.232 0 0 1-5.286 7.428c-3.248 3.168-6.671 4.751-10.271 4.751h-.37c-3.635-.166-5.455-2.619-5.46-7.36zm7.371-8.65-.114.076c-1.369.935-2.439 2.647-3.209 5.136.359.063.723.093 1.087.09a5.48 5.48 0 0 0 3.444-1.108 3.65 3.65 0 0 0 1.571-2.926 2.613 2.613 0 0 0-.046-.475c-.13-.845-.501-1.282-1.11-1.312a4.365 4.365 0 0 0-1.623.55v-.03zm10.671-.98a1.854 1.854 0 0 0 1.306 1.682c.27-.527.448-1.095.529-1.681a1.032 1.032 0 0 0-.046-.287.751.751 0 0 0-.845-.603.947.947 0 0 0-.28.045.807.807 0 0 0-.664.875v-.03z" fill="#28C985"/></g><defs><linearGradient id="b" x1="0" y1="25.858" x2="42.148" y2="25.858" gradientUnits="userSpaceOnUse"><stop stop-color="#28C985"/><stop offset="1" stop-color="#18808A"/></linearGradient><clipPath id="a"><path fill="#fff" d="M0 0h169v59H0z"/></clipPath></defs></svg>
